X:1
T:Just judge of heaven, against my foes
T:John Broderip
T:Text: Nahum Tate/Nicholas Brady, on Ps. 43
T:This edition by Edmund Gooch released into the public domain, September 2015.
T:Just judge of heaven, against my foes
C:John Broderip
Z:Text: Nahum Tate/Nicholas Brady, on Ps. 43
%%score [ 1 2 3 4 ]
L:1/8
M:3/2
K:Emin
V:1 treble nm="SOPRANO" snm="S."
V:2 treble nm="ALTO" snm="A."
V:3 treble-8 transpose=-12 nm="TENOR" snm="T."
V:4 bass nm="BASS" snm="B."
V:1
 E4 | B8 e4 | ^d8 e4 | (d4 c4) B4 | A8 d4 | B8 (B2 A2) | (G4 F4) E4 | e8 (f2 e2) | ^d8 =d4 | %9
w: Let|me with|light and|truth _ be|blest, Be|these my _|guides _ to|lead the _|way; Till|
w: Just|judge of|heav’n, a-|gainst _ my|foes Do|thou as- *|sert _ my|in- jur’d _|right: O|
w: Since|thou art|still my|on- * ly|stay, Why|leav’st thou _|me _ in|deep dis- *|tress? Why|
 (d4 c4) B4 | (B4 A4) G4 | (e2 d2 c4) B4 | A8 B4 | (B4 A4) G4 | (e4 c4) A4 | G8 F4 | E8 |] %17
w: on _ thy|ho- * ly|hill _ _ I|rest, And|in _ thy|sa- * cred|tem- ple|pray.|
w: set _ me|free, _ my|God, _ _ from|those That|in _ de-|ceit _ and|wrong de-|light.|
w: go _ I|mour- * ning|all _ _ the|day, Whilst|me _ in-|sul- * ting|foes op-|press?|
V:2
 B,4 | B,8 A,4 | B,8 (B,2 C2) | D8 G4 | F8 F4 | G8 F4 | (E4 B,4) E4 | E8 (A2 G2) | F8 G4 | F8 E4 | %10
w: Let|me with|light and _|truth be|blest, Be|these my|guides _ to|lead the _|way; Till|on thy|
w: Just|judge of|heav’n, a- *|gainst my|foes Do|thou as-|sert _ my|in- jur’d _|right: O|set me|
w: Since|thou art|still my _|on- ly|stay, Why|leav’st thou|me _ in|deep dis- *|tress? Why|go I|
 E8 D4 | C8 D4 | D8 G4 | (G4 F4) E4 | E8 (F2 E2) | E8 ^D4 | E8 |] %17
w: ho- ly|hill I|rest, And|in _ thy|sa- cred _|tem- ple|pray.|
w: free, my|God, from|those That|in _ de-|ceit and _|wrong de-|light.|
w: mour- ning|all the|day, Whilst|me _ in-|sul- ting _|foes op-|press?|
V:3
 G4 | F8 E4 | B8 B4 | A8 G4 | d8 A4 | B8 B4 | B8 e4 | A8 c4 | B8 B4 | A8 G4 | c8 B4 | (E4 F4) G4 | %12
w: Let|me with|light and|truth be|blest, Be|these my|guides to|lead the|way; Till|on thy|ho- ly|hill _ I|
w: Just|judge of|heav’n, a-|gainst my|foes Do|thou as-|sert my|in- jur’d|right: O|set me|free, my|God, _ from|
w: Since|thou art|still my|on- ly|stay, Why|leav’st thou|me in|deep dis-|tress? Why|go I|mour- ning|all _ the|
 F8 G4 | d8 B4 | (B4 E4) A4 | B8 B4 | B8 |] %17
w: rest, And|in thy|sa- * cred|tem- ple|pray.|
w: those That|in de-|ceit _ and|wrong de-|light.|
w: day, Whilst|me in-|sul- * ting|foes op-|press?|
V:4
 E,4 | D,8 C,4 | B,,8 E,4 | F,8 G,4 | D,8 D,4 | G,8 ^D,4 | (E,4 D,4) C,4 | (C,4 B,,4) A,,4 | %8
w: Let|me with|light and|truth be|blest, Be|these my|guides _ to|lead _ the|
w: Just|judge of|heav’n, a-|gainst my|foes Do|thou as-|sert _ my|in- * jur’d|
w: Since|thou art|still my|on- ly|stay, Why|leav’st thou|me _ in|deep _ dis-|
 B,,8 G,4 | %9
w: way; Till|
w: right: O|
w: tress? Why|
"^Notes:Clefs in the source are treble, alto, tenor and bass.Only the first verse of the text is given in the source: three selected further verses have here been added editorially." D,8 E,4 | %10
w: on thy|
w: set me|
w: go I|
 A,,8 B,,4 | (C,2 B,,2 A,,4) G,,4 | D,8 G,4 | D,8 E,4 | C,8 C,4 | B,,8 B,,4 | E,8 |] %17
w: ho- ly|hill _ _ I|rest, And|in thy|sa- cred|tem- ple|pray.|
w: free, my|God, _ _ from|those That|in de-|ceit and|wrong de-|light.|
w: mour- ning|all _ _ the|day, Whilst|me in-|sul- ting|foes op-|press?|

